!!!COM: Schiørring, Niels
!!!CDT: 1743-1798
!!!OPR@@DA: Choral-Bog
!!!ONM: 93
!!!OTL@@DA: Store Prophete med himmelſke
**kern	**fb	**kern	**kern	**kern	**kern	**kern	**kern	**kern
*part6	*part6	*part6	*part5	*part5	*part4	*part3	*part2	*part1
*staff8	*	*staff7	*staff6	*staff5	*staff4	*staff3	*staff2	*staff1
*clefF4	*	*clefC1	*clefF4	*clefC1	*clefF4	*clefC4	*clefC3	*clefC1
*mclefF4	*	*mclefG2	*mclefF4	*mclefG2	*mclefF4	*mclefGv2	*mclefG2	*mclefG2
*k[b-]	*	*k[b-]	*k[b-]	*k[b-]	*k[b-]	*k[b-]	*k[b-]	*k[b-]
*F:	*	*F:	*F:	*F:	*F:	*F:	*F:	*F:
*M3/2	*	*M3/2	*M3/2	*M3/2	*M3/2	*M3/2	*M3/2	*M3/2
=1	=1	=1	=1	=1	=1	=1	=1	=1
*	*	*	*^	*^	*	*	*	*
1F	.	2f	2A	1F	2f	2c	2F	2A	2c	2f
.	.	2a	2c	.	2a	2f	2F	2c	2f	2a
2E	6	2cc	2c	2E	2cc	2g	2E	2c	2g	2cc
=2	=2	=2	=2	=2	=2	=2	=2	=2	=2	=2
2F	.	2a	2c	2F	2a	2f	2F	2c	2f	2a
2C	7	2g	2B-	2C	2g	2e	2C	2B-	2e	2g
2D	.	2f	2A	2D	2f	[2f	2D	2A	[2f	2f
=3	=3	=3	=3	=3	=3	=3	=3	=3	=3	=3
2BB-	6 5	2g	1.ryy	2BB-	2d	1f]	2BB-	2d	2f]	2g
1C	6 4	2a	.	1C	1c	.	2C	2c	2f	2a
.	7	2b-	.	.	.	2e	2C	2c	2e	2b-
=4	=4	=4	=4	=4	=4	=4	=4	=4	=4	=4
1F	.	1a	1.ryy	1F	1c	1f	1F	1c	1f	1a
*	*	*	*	*	*	*	*^	*	*	*
2FF	.	2a	.	2FF	2c	2f	2F	2FF	2c	2f	2a
=5	=5	=5	=5	=5	=5	=5	=5	=5	=5	=5	=5
2D	.	2a	1.ryy	2D	2d	2f	2D	1.r	2d	2f	2a
2BBn	7 5	2a	.	2BBn	2d	2f	2BBn	.	2d	2f	2a
2C	.	2g	.	2C	2e	2e	2C	.	2e	2e	2g
=6	=6	=6	=6	=6	=6	=6	=6	=6	=6	=6	=6
1F	5	2a	2c	1F	2a	2f	2F	1.r	2c	2f	2a
.	nr4	2bn	2d	.	2bn	1g	2F	.	2d	2g	2bn
2E	6	2cc	2e	2E	2cc	.	2E	.	2G	2g	2cc
=7	=7	=7	=7	=7	=7	=7	=7	=7	=7	=7	=7
2A	.	2cc	2e	2A	2cc	1a	2A	1.r	2A	2e	2cc
2F	6	2dd	1d	2F	2dd	.	2F	.	2A	2f	2dd
2G	n	2bn	.	2G	2bn	2g	2G	.	2G	2d	2bn
=8	=8	=8	=8	=8	=8	=8	=8	=8	=8	=8	=8
1.C	.	1.cc	1.ryy	1.C	1.e	1.g	1.C	1.r	1.G	1.e	1.cc
=9:|!	=9:|!	=9:|!	=9:|!	=9:|!	=9:|!	=9:|!	=9:|!	=9:|!	=9:|!	=9:|!	=9:|!
1AA	.	2cc	1.ryy	1AA	2e	2a	2AA	1.r	2A	2e	2cc
.	.	2cc	.	.	2e	2a	2AA	.	2A	2e	2cc
2D	#	2a	.	2D	2f#X	[2a	2D	.	[2A	[2f#X	2a
=10	=10	=10	=10	=10	=10	=10	=10	=10	=10	=10	=10
2BB-	7 5	2dd	2ryy	2BB-	2d	2a]	2BB-	1.r	2A]	2f#]	2dd
2B-	6	2dd	2B-	2B-	2dd	2g	2BB-	.	2G	2g	2dd
2A	6	2cc	2c	2A	2cc	2f#X	2AA	.	2c	2f#X	2cc
=11	=11	=11	=11	=11	=11	=11	=11	=11	=11	=11	=11
2G	.	2b-	2d	2G	2b-	2g	2GG	1.r	2d	2g	2b-
2E	5	2b-	1c	2E	2b-	2g	2E	.	2c	2g	2b-
2F	.	2a	.	2Fni	2a	2fni	2F	.	2c	2fni	2a
=12	=12	=12	=12	=12	=12	=12	=12	=12	=12	=12	=12
2BBn	5	1g	1.ryy	2BBn	2d	1f	2BBn	1.r	2d	1f	1g
1C	4	.	.	1C	1c	.	1C	.	1c	.	.
.	3	2g	.	.	.	2e	.	.	.	2e	2g
=13	=13	=13	=13	=13	=13	=13	=13	=13	=13	=13	=13
1D	6	2b-Xi	1B-Xi	1D	2b-Xi	2f	2D	1.r	2B-	2f	2b-
.	.	2b-	.	.	2b-	2f	2D	.	2d	2f	2b-
2E	6	2cc	2G	2E	2cc	2g	2E	.	2c	2g	2cc
=14	=14	=14	=14	=14	=14	=14	=14	=14	=14	=14	=14
*	*	*	*	*	*	*^	*	*	*	*	*
2F	.	2a	2A	2F	2a	2f	2c\	2F	1.r	2c	2f	2a
*	*	*	*	*	*	*v	*v	*	*	*	*	*
2C#X	7 5	2g	2B-	2C#X	2g	2e	2C#X	.	2B-	2e	2g
2D	.	2f	[2A	2D	2f	2d	2D	.	[2A	2d	2f
=15	=15	=15	=15	=15	=15	=15	=15	=15	=15	=15	=15
1BB-	7	2d	2A]	1BB-	2d	2d	2BB-	1.r	2A]	2d	2d
.	6	2g	1G	.	2g	2d	2BB-	.	2G	2d	2g
2Cni	.	2e	.	2Cni	2e	2cni	2Cni	.	2G	2c	2e
=16	=16	=16	=16	=16	=16	=16	=16	=16	=16	=16	=16
1.FF	.	1f	1.ryy	1F	1A	1c	1F	1FF	1A	1c	1f
.	.	2f	.	2FF	2A	2c	2F	2FF	2A	2c	2f
*	*	*	*v	*v	*	*	*v	*v	*	*	*
*	*	*	*	*v	*v	*	*	*	*
==	==	==	==	==	==	==	==	==
*-	*-	*-	*-	*-	*-	*-	*-	*-
!!!system-decoration: {(s1,s2,s3,s4)}{(s5,s6)}{(s7,s8)}
!!!RDF**kern: i = editorial accidental
!!!RDF**kern: > = above
!!!RDF**kern: < = below
!!!AGN: chorale
!!!EED: Derek Remeš
!!!EED2: Victor Phan
!!!END: 2023/11/28
!!!ENC: Wolfgang Drescher
!!!EEV: 2023/11/30
!!!title: @{ONM}. @{OTL}